icons/circle/48/hocus.svg

<svg version="1.1" viewBox="0 0 48 48" xmlns="http://www.w3.org/2000/svg">
 <defs>
  <linearGradient id="bg" x2="0" y1="1" y2="47" gradientUnits="userSpaceOnUse">
   <stop stop-color="#444" offset="0"/>
   <stop stop-color="#3a3a3a" offset="1"/>
  </linearGradient>
 </defs>
 <path d="m36.31 5c5.859 4.062 9.688 10.831 9.688 18.5 0 12.426-10.07 22.5-22.5 22.5-7.669 0-14.438-3.828-18.5-9.688 1.037 1.822 2.306 3.499 3.781 4.969 4.085 3.712 9.514 5.969 15.469 5.969 12.703 0 23-10.298 23-23 0-5.954-2.256-11.384-5.969-15.469-1.469-1.475-3.147-2.744-4.969-3.781zm4.969 3.781c3.854 4.113 6.219 9.637 6.219 15.719 0 12.703-10.297 23-23 23-6.081 0-11.606-2.364-15.719-6.219 4.16 4.144 9.883 6.719 16.219 6.719 12.703 0 23-10.298 23-23 0-6.335-2.575-12.06-6.719-16.219z" opacity=".05"/>
 <path d="m41.28 8.781c3.712 4.085 5.969 9.514 5.969 15.469 0 12.703-10.297 23-23 23-5.954 0-11.384-2.256-15.469-5.969 4.113 3.854 9.637 6.219 15.719 6.219 12.703 0 23-10.298 23-23 0-6.081-2.364-11.606-6.219-15.719z" opacity=".1"/>
 <path d="m31.25 2.375c8.615 3.154 14.75 11.417 14.75 21.13 0 12.426-10.07 22.5-22.5 22.5-9.708 0-17.971-6.135-21.12-14.75a23 23 0 0 0 44.875-7 23 23 0 0 0-16-21.875z" opacity=".2"/>
 <circle cx="24" cy="24" r="23" fill="url(#bg)"/>
 <path d="m40.03 7.531c3.712 4.084 5.969 9.514 5.969 15.469 0 12.703-10.297 23-23 23-5.954 0-11.384-2.256-15.469-5.969 4.178 4.291 10.01 6.969 16.469 6.969 12.703 0 23-10.298 23-23 0-6.462-2.677-12.291-6.969-16.469z" opacity=".1"/>
 <path transform="translate(1 1)" d="m14 14 4-2 4 2 4-2 4 2v4l8 4v4l-20 10-4-2zm8 8v4l4-2z" opacity=".1"/>
 <path d="m17 20h5v6l16-4v4l-20 10z" fill="#777"/>
 <path d="m14 14v20l4 2v-16l12 6v-5z" fill="#aaa"/>
 <path d="m14 14 4-2 20 10-16 8v-4l8-4z" fill="#ccc"/>
 <path d="m25 14h5v4l-4 2z" fill="#a00" style="fill:#d60a0a"/>
 <path d="m22 18v-4h4v6z" fill="#c00" style="fill:#ea0b0b"/>
 <path d="m26 16-4-2 4-2 4 2z" fill="#e00" style="fill:#f32525"/>
</svg>

<svg xmlns="http://www.w3.org/2000/svg" viewBox="0 0 48 48">
	<defs>
		<linearGradient id="bg" x1="0" x2="0" y1="1" y2="47" gradientUnits="userSpaceOnUse" >
			<stop offset="0" stop-color="#444"/>
			<stop offset="1" stop-color="#3a3a3a"/>
		</linearGradient>
	</defs>
	<path d="m 36.31 5 c 5.859 4.062 9.688 10.831 9.688 18.5 c 0 12.426 -10.07 22.5 -22.5 22.5 c -7.669 0 -14.438 -3.828 -18.5 -9.688 c 1.037 1.822 2.306 3.499 3.781 4.969 c 4.085 3.712 9.514 5.969 15.469 5.969 c 12.703 0 23 -10.298 23 -23 c 0 -5.954 -2.256 -11.384 -5.969 -15.469 c -1.469 -1.475 -3.147 -2.744 -4.969 -3.781 z m 4.969 3.781 c 3.854 4.113 6.219 9.637 6.219 15.719 c 0 12.703 -10.297 23 -23 23 c -6.081 0 -11.606 -2.364 -15.719 -6.219 c 4.16 4.144 9.883 6.719 16.219 6.719 c 12.703 0 23 -10.298 23 -23 c 0 -6.335 -2.575 -12.06 -6.719 -16.219 z" opacity=".05"/>
	<path d="m 41.28 8.781 c 3.712 4.085 5.969 9.514 5.969 15.469 c 0 12.703 -10.297 23 -23 23 c -5.954 0 -11.384 -2.256 -15.469 -5.969 c 4.113 3.854 9.637 6.219 15.719 6.219 c 12.703 0 23 -10.298 23 -23 c 0 -6.081 -2.364 -11.606 -6.219 -15.719 z" opacity=".1"/>
	<path d="m 31.25 2.375 c 8.615 3.154 14.75 11.417 14.75 21.13 c 0 12.426 -10.07 22.5 -22.5 22.5 c -9.708 0 -17.971 -6.135 -21.12 -14.75 a 23 23 0 0 0 44.875 -7 a 23 23 0 0 0 -16 -21.875 z" opacity=".2"/>
	<circle cx="24" cy="24" r="23" fill="url(#bg)"/>
	<path d="m 40.03 7.531 c 3.712 4.084 5.969 9.514 5.969 15.469 0 12.703 -10.297 23 -23 23 c -5.954 0 -11.384 -2.256 -15.469 -5.969 4.178 4.291 10.01 6.969 16.469 6.969 c 12.703 0 23 -10.298 23 -23 0 -6.462 -2.677 -12.291 -6.969 -16.469 z" opacity=".1"/>
	<path d="M14 14 18 12 22 14 26 12 30 14 30 18 38 22 38 26 18 36 14 34z M22 22 22 26 26 24z" opacity=".1" transform="translate(1 1)"/>
	<path d="M 17 20 22 20 22 26 38 22 38 26 18 36z" fill="#777"/>
	<path d="M 14 14 14 34 18 36 18 20 30 26 30 21z" fill="#aaa"/>
	<path d="M 14 14 18 12 38 22 22 30 22 26 30 22z" fill="#ccc"/>
	<path d="M 25 14 h 5 v 4 l -4 2 z" fill="#a00"/>
	<path d="M 22 18 v -4 h 4 v 6 z" fill="#c00"/>
	<path d="M 26 16 l -4 -2 4 -2 4 2 z" fill="#e00"/>
</svg>
